front/src/Assets/image/result/download.svg

<svg width="24" height="24" viewBox="0 0 24 24" fill="none" xmlns="http://www.w3.org/2000/svg">
<path d="M12 14L11.6464 14.3536L12 14.7071L12.3536 14.3536L12 14ZM12.5 5C12.5 4.72386 12.2761 4.5 12 4.5C11.7239 4.5 11.5 4.72386 11.5 5L12.5 5ZM6.64645 9.35355L11.6464 14.3536L12.3536 13.6464L7.35355 8.64645L6.64645 9.35355ZM12.3536 14.3536L17.3536 9.35355L16.6464 8.64645L11.6464 13.6464L12.3536 14.3536ZM12.5 14L12.5 5L11.5 5L11.5 14L12.5 14Z" fill="#6F3DDB"/>
<path d="M5 16L5 17C5 18.1046 5.89543 19 7 19L17 19C18.1046 19 19 18.1046 19 17V16" stroke="#6F3DDB"/>
</svg>

<svg xmlns="http://www.w3.org/2000/svg" fill="none" viewBox="0 0 24 24">
  <path fill="#6F3DDB" d="M12 14l-.354.354.354.353.354-.353L12 14zm.5-9a.5.5 0 00-1 0h1zM6.646 9.354l5 5 .708-.708-5-5-.708.708zm5.708 5l5-5-.708-.708-5 5 .708.708zM12.5 14V5h-1v9h1z"/>
  <path stroke="#6F3DDB" d="M5 16v1a2 2 0 002 2h10a2 2 0 002-2v-1"/>
</svg>
